packages/core/assets/Icons/cut.svg

<svg viewBox="0 0 20 20" fill="none" xmlns="http://www.w3.org/2000/svg">
<path d="M10 11.6667L8.04169 13.625C8.1528 13.8334 8.22919 14.0556 8.27085 14.2917C8.31252 14.5278 8.33335 14.7639 8.33335 15C8.33335 15.9167 8.00697 16.7014 7.35419 17.3542C6.70141 18.007 5.91669 18.3334 5.00002 18.3334C4.08335 18.3334 3.29863 18.007 2.64585 17.3542C1.99308 16.7014 1.66669 15.9167 1.66669 15C1.66669 14.0834 1.99308 13.2986 2.64585 12.6459C3.29863 11.9931 4.08335 11.6667 5.00002 11.6667C5.23613 11.6667 5.47224 11.6875 5.70835 11.7292C5.94446 11.7709 6.16669 11.8472 6.37502 11.9584L8.33335 10L6.37502 8.04169C6.16669 8.1528 5.94446 8.22919 5.70835 8.27085C5.47224 8.31252 5.23613 8.33335 5.00002 8.33335C4.08335 8.33335 3.29863 8.00696 2.64585 7.35419C1.99308 6.70141 1.66669 5.91669 1.66669 5.00002C1.66669 4.08335 1.99308 3.29863 2.64585 2.64585C3.29863 1.99308 4.08335 1.66669 5.00002 1.66669C5.91669 1.66669 6.70141 1.99308 7.35419 2.64585C8.00697 3.29863 8.33335 4.08335 8.33335 5.00002C8.33335 5.23613 8.31252 5.47224 8.27085 5.70835C8.22919 5.94446 8.1528 6.16669 8.04169 6.37502L17.1667 15.5C17.5417 15.875 17.625 16.3021 17.4167 16.7813C17.2084 17.2604 16.8403 17.5 16.3125 17.5C16.1597 17.5 16.0104 17.4688 15.8646 17.4063C15.7188 17.3438 15.5903 17.257 15.4792 17.1459L10 11.6667ZM12.5 9.16669L10.8334 7.50002L15.4792 2.85419C15.5903 2.74308 15.7188 2.65627 15.8646 2.59377C16.0104 2.53127 16.1597 2.50002 16.3125 2.50002C16.8403 2.50002 17.2049 2.74308 17.4063 3.22919C17.6077 3.7153 17.5209 4.14585 17.1459 4.52085L12.5 9.16669ZM5.00002 6.66669C5.45835 6.66669 5.85071 6.50349 6.1771 6.1771C6.50349 5.85071 6.66669 5.45835 6.66669 5.00002C6.66669 4.54169 6.50349 4.14933 6.1771 3.82294C5.85071 3.49655 5.45835 3.33335 5.00002 3.33335C4.54169 3.33335 4.14933 3.49655 3.82294 3.82294C3.49655 4.14933 3.33335 4.54169 3.33335 5.00002C3.33335 5.45835 3.49655 5.85071 3.82294 6.1771C4.14933 6.50349 4.54169 6.66669 5.00002 6.66669ZM10 10.4167C10.1111 10.4167 10.2084 10.375 10.2917 10.2917C10.375 10.2084 10.4167 10.1111 10.4167 10C10.4167 9.88891 10.375 9.79169 10.2917 9.70835C10.2084 9.62502 10.1111 9.58335 10 9.58335C9.88891 9.58335 9.79169 9.62502 9.70835 9.70835C9.62502 9.79169 9.58335 9.88891 9.58335 10C9.58335 10.1111 9.62502 10.2084 9.70835 10.2917C9.79169 10.375 9.88891 10.4167 10 10.4167ZM5.00002 16.6667C5.45835 16.6667 5.85071 16.5035 6.1771 16.1771C6.50349 15.8507 6.66669 15.4584 6.66669 15C6.66669 14.5417 6.50349 14.1493 6.1771 13.8229C5.85071 13.4965 5.45835 13.3334 5.00002 13.3334C4.54169 13.3334 4.14933 13.4965 3.82294 13.8229C3.49655 14.1493 3.33335 14.5417 3.33335 15C3.33335 15.4584 3.49655 15.8507 3.82294 16.1771C4.14933 16.5035 4.54169 16.6667 5.00002 16.6667Z" fill="currentColor"/>
</svg>

<svg xmlns="http://www.w3.org/2000/svg" width="20" height="20" fill="none" viewBox="0 0 20 20">
  <path fill="#201F1F" d="m10 11.667-1.958 1.958c.11.208.187.43.229.667.042.236.062.472.062.708a3.21 3.21 0 0 1-.979 2.354 3.21 3.21 0 0 1-2.354.98 3.21 3.21 0 0 1-2.354-.98A3.21 3.21 0 0 1 1.666 15c0-.917.327-1.701.98-2.354A3.21 3.21 0 0 1 5 11.666c.236 0 .472.021.708.063.236.042.459.118.667.23L8.333 10 6.375 8.042c-.208.11-.43.187-.667.229A4.068 4.068 0 0 1 5 8.333a3.21 3.21 0 0 1-2.354-.979A3.21 3.21 0 0 1 1.666 5c0-.917.327-1.701.98-2.354A3.21 3.21 0 0 1 5 1.666a3.21 3.21 0 0 1 2.354.98A3.21 3.21 0 0 1 8.334 5c0 .236-.021.472-.063.708a2.231 2.231 0 0 1-.23.667l9.126 9.125c.375.375.458.802.25 1.281-.209.48-.577.719-1.105.719-.152 0-.302-.031-.447-.094a1.22 1.22 0 0 1-.386-.26L10 11.666Zm2.5-2.5L10.833 7.5l4.646-4.646a1.22 1.22 0 0 1 .386-.26c.145-.063.295-.094.447-.094.528 0 .893.243 1.094.73.202.485.115.916-.26 1.29L12.5 9.168ZM5 6.667c.458 0 .85-.164 1.177-.49.326-.326.49-.719.49-1.177 0-.458-.164-.85-.49-1.177A1.605 1.605 0 0 0 5 3.333c-.458 0-.85.164-1.177.49-.326.326-.49.719-.49 1.177 0 .458.164.85.49 1.177.326.326.719.49 1.177.49Zm5 3.75a.4.4 0 0 0 .292-.125.4.4 0 0 0 0-.584.4.4 0 0 0-.584 0 .4.4 0 0 0 0 .584.4.4 0 0 0 .292.125Zm-5 6.25c.458 0 .85-.164 1.177-.49.326-.326.49-.719.49-1.177 0-.458-.164-.85-.49-1.177A1.605 1.605 0 0 0 5 13.333c-.458 0-.85.163-1.177.49-.326.326-.49.719-.49 1.177 0 .458.164.85.49 1.177.326.326.719.49 1.177.49Z"/>
</svg>
